; generated by PrusaSlicer 2.3.0+win64 on 2021-04-23 at 00:45:11 UTC

; 

; external perimeters extrusion width = 0.60mm
; perimeters extrusion width = 0.50mm
; infill extrusion width = 0.50mm
; solid infill extrusion width = 0.50mm
; top infill extrusion width = 0.45mm
; first layer extrusion width = 0.42mm

M73 P0 R37
M73 Q0 S37
M201 X1000 Y1000 Z200 E5000 ; sets maximum accelerations, mm/sec^2
M203 X200 Y200 Z12 E120 ; sets maximum feedrates, mm/sec
M204 P1250 R1250 T1250 ; sets acceleration (P, T) and retract acceleration (R), mm/sec^2
M205 X8.00 Y8.00 Z0.40 E4.50 ; sets the jerk limits, mm/sec
M205 S0 T0 ; sets the minimum extruding and travel feed rate, mm/sec
M107
;TYPE:Custom
M862.3 P "MK3SMMU2S" ; printer model check
M862.1 P0.4 ; nozzle diameter check
M115 U3.9.1 ; tell printer latest fw version
G90 ; use absolute coordinates
M83 ; extruder relative mode
M104 S215 ; set extruder temp
M140 S60 ; set bed temp
Tx
M190 S60 ; wait for bed temp
M109 S215 ; wait for extruder temp
G28 W ; home all without mesh bed level
G80 ; mesh bed leveling

;go outside print area
G1 Y-3.0 F1000.0
G1 Z0.4 F1000.0
; select extruder
Tc
; purge line
G1 X55.0 F2000.0
G1 Z0.3 F1000.0
G92 E0.0
G1 X240.0 E25.0 F2200.0
G1 Y-2.0 F1000.0
G1 X55.0 E25 F1400.0
G1 Z0.20 F1000.0
G1 X5.0 E4.0 F1000.0

M221 S95
G92 E0.0

; Don't change E values below. Excessive value can damage the printer.

M907 E538 ; set extruder motor current
G21 ; set units to millimeters
G90 ; use absolute coordinates
M83 ; use relative distances for extrusion
M900 K0.05 ; Filament gcode LA 1.5
M900 K30 ; Filament gcode LA 1.0
;LAYER_CHANGE
;Z:0.2
;HEIGHT:0.2
;BEFORE_LAYER_CHANGE
G92 E0.0
;0.2


G1 E-0.80000 F2100.000
G1 Z0.600 F10800.000
;AFTER_LAYER_CHANGE
;0.2
G1 X102.193 Y87.854
G1 Z0.200
G1 E0.80000 F2100.000
M204 S1000
;TYPE:Skirt
;WIDTH:0.42
G1 F1200.000
G1 X102.874 Y87.165 E0.03036
G1 X135.177 Y65.976 E1.21130
G1 X135.657 Y65.805 E0.01597
G1 X136.162 Y65.741 E0.01597
G1 X148.211 Y65.741 E0.37776
G1 X148.702 Y65.793 E0.01550
G1 X149.176 Y65.947 E0.01562
G1 X149.604 Y66.195 E0.01550
G1 X149.971 Y66.525 E0.01550
G1 X160.808 Y79.501 E0.53006
M73 P1 R37
M73 Q1 S37
G1 X161.166 Y80.095 E0.02178
G1 X161.350 Y80.985 E0.02849
G1 X161.350 Y95.037 E0.44059
G1 X161.249 Y95.694 E0.02083
G1 X160.968 Y96.300 E0.02095
G1 X130.745 Y135.369 E1.54873
G1 X128.936 Y137.385 E0.08494
G1 X127.059 Y139.062 E0.07890
G1 X125.966 Y139.889 E0.04299
G1 X124.793 Y140.670 E0.04418
G1 X122.584 Y141.891 E0.07914
G1 X120.021 Y142.953 E0.08701
G1 X117.595 Y143.652 E0.07914
G1 X116.236 Y143.925 E0.04346
G1 X114.860 Y144.117 E0.04358
G1 X112.343 Y144.258 E0.07902
G1 X109.569 Y144.103 E0.08713
G1 X107.081 Y143.680 E0.07914
G1 X105.738 Y143.336 E0.04346
G1 X104.414 Y142.912 E0.04358
G1 X102.086 Y141.947 E0.07902
G1 X99.679 Y140.620 E0.08617
G1 X98.551 Y139.862 E0.04263
G1 X96.583 Y138.293 E0.07890
G1 X94.661 Y136.377 E0.08510
G1 X92.972 Y134.253 E0.08510
G1 X92.236 Y133.146 E0.04167
G1 X91.019 Y130.943 E0.07890
G1 X89.976 Y128.437 E0.08510
G1 X89.229 Y125.828 E0.08510
G1 X88.931 Y124.223 E0.05119
G1 X88.691 Y122.020 E0.06949
G1 X88.686 Y119.328 E0.08439
G1 X88.807 Y117.921 E0.04430
G1 X89.242 Y115.373 E0.08105
G1 X89.956 Y112.888 E0.08105
G1 X90.461 Y111.561 E0.04454
G1 X102.167 Y87.908 E0.82748
;WIPE_START
G1 F8640.000
G1 X102.874 Y87.165 E-0.23677
G1 X104.769 Y85.922 E-0.52323
;WIPE_END
G1 E-0.04000 F2100.000
G1 Z0.800 F10800.000
G1 X106.685 Y84.440
G1 Z0.200
G1 E0.80000 F2100.000
G1 F1200.000
G1 X103.673 Y84.441 E0.09445
G1 X102.563 Y84.685 E0.03562
G1 X101.570 Y85.191 E0.03495
G1 X100.577 Y86.089 E0.04198
G1 X100.003 Y86.902 E0.03122
G1 X99.522 Y88.314 E0.04676
G1 X99.483 Y92.904 E0.14394
G1 X99.573 Y93.574 F10800.000
G1 F1200.000
G1 X99.708 Y94.217 E0.02062
G1 X100.292 Y95.347 E0.03987
G1 X101.185 Y96.305 E0.04106
G1 X101.977 Y96.808 E0.02943
G1 X100.965 Y97.262 E0.03477
G1 X99.671 Y97.934 E0.04571
G1 X98.420 Y98.676 E0.04563
G1 X97.229 Y99.474 E0.04494
G1 X96.310 Y100.166 E0.03607
G1 X95.605 Y100.742 F10800.000
G1 F1200.000
G1 X94.989 Y101.261 E0.02524
G1 X93.954 Y102.237 E0.04460
G1 X92.967 Y103.276 E0.04495
G1 X92.039 Y104.370 E0.04499
G1 X91.088 Y105.628 E0.04945
G1 X90.266 Y106.862 E0.04647
G1 X89.550 Y108.079 E0.04427
G1 X88.897 Y109.342 E0.04458
G1 X88.296 Y110.680 E0.04600
G1 X87.764 Y112.074 E0.04679
G1 X87.319 Y113.475 E0.04607
G1 X86.955 Y114.895 E0.04598
G1 X86.672 Y116.332 E0.04593
G1 X86.474 Y117.752 E0.04493
G1 X86.354 Y119.180 E0.04493
G1 X86.313 Y120.615 E0.04502
G1 X86.357 Y122.139 E0.04780
G1 X86.482 Y123.592 E0.04570
G1 X86.683 Y125.001 E0.04463
G1 X86.963 Y126.406 E0.04493
G1 X87.326 Y127.814 E0.04561
G1 X87.771 Y129.210 E0.04593
G1 X88.282 Y130.549 E0.04492
G1 X88.857 Y131.839 E0.04430
G1 X89.497 Y133.087 E0.04399
G1 X90.300 Y134.456 E0.04975
G1 X91.100 Y135.654 E0.04516
G1 X91.981 Y136.824 E0.04593
G1 X92.927 Y137.943 E0.04593
G1 X93.913 Y138.987 E0.04503
G1 X95.022 Y140.033 E0.04780
G1 X96.138 Y140.970 E0.04569
G1 X97.277 Y141.824 E0.04464
G1 X98.461 Y142.614 E0.04462
G1 X99.750 Y143.374 E0.04691
G1 X100.995 Y144.016 E0.04392
G1 X102.274 Y144.591 E0.04397
G1 X103.708 Y145.141 E0.04814
G1 X105.161 Y145.601 E0.04780
G1 X106.571 Y145.961 E0.04563
G1 X107.977 Y146.237 E0.04492
G1 X109.396 Y146.435 E0.04491
G1 X110.792 Y146.553 E0.04393
G1 X112.204 Y146.595 E0.04430
G1 X113.739 Y146.554 E0.04814
G1 X115.226 Y146.427 E0.04678
G1 X116.698 Y146.216 E0.04663
G1 X118.071 Y145.941 E0.04393
G1 X119.428 Y145.591 E0.04393
G1 X120.865 Y145.134 E0.04726
G1 X122.184 Y144.631 E0.04428
G1 X123.475 Y144.056 E0.04429
G1 X124.771 Y143.392 E0.04568
G1 X126.095 Y142.613 E0.04816
G1 X127.299 Y141.809 E0.04538
G1 X128.469 Y140.928 E0.04593
G1 X129.572 Y139.996 E0.04526
G1 X130.614 Y139.013 E0.04493
G1 X131.601 Y137.972 E0.04497
G1 X132.522 Y136.886 E0.04465
G1 X133.465 Y135.637 E0.04909
G1 X134.253 Y134.457 E0.04447
G1 X134.982 Y133.224 E0.04492
G1 X135.656 Y131.923 E0.04593
G1 X136.257 Y130.584 E0.04604
G1 X136.800 Y129.159 E0.04782
G1 X137.243 Y127.759 E0.04603
G1 X137.427 Y127.039 E0.02330
G1 X137.643 Y126.143 F10800.000
G1 F1200.000
G1 X137.875 Y124.974 E0.03738
G1 X138.076 Y123.545 E0.04526
G1 X138.198 Y122.106 E0.04527
G1 X138.240 Y120.660 E0.04535
G1 X138.198 Y119.147 E0.04746
M73 P1 R36
G1 X138.071 Y117.673 E0.04640
G1 X137.864 Y116.232 E0.04564
G1 X137.580 Y114.816 E0.04528
G1 X137.224 Y113.439 E0.04459
G1 X136.793 Y112.084 E0.04459
G1 X136.284 Y110.744 E0.04494
G1 X135.776 Y109.612 E0.03891
G1 X149.507 Y109.609 E0.43053
G1 X150.666 Y109.308 E0.03755
G1 X151.443 Y108.921 F10800.000
G1 F1200.000
G1 X152.184 Y108.462 E0.02734
G1 X162.790 Y97.785 E0.47186
G1 X163.418 Y96.586 E0.04241
G1 X163.687 Y95.306 E0.04101
G1 X163.687 Y80.691 E0.45826
G1 X163.325 Y79.194 E0.04829
G1 X162.572 Y77.946 E0.04569
G1 X152.908 Y68.293 E0.42827
G1 X152.886 Y67.364 E0.02911
G1 X152.638 Y66.413 E0.03082
G1 X151.958 Y65.225 E0.04292
G1 X150.778 Y64.129 E0.05049
G1 X149.769 Y63.635 E0.03523
G1 X148.704 Y63.408 E0.03415
G1 X135.668 Y63.404 E0.40874
G1 X134.112 Y63.861 E0.05084
G1 X133.298 Y64.383 E0.03033
G1 X132.388 Y65.309 E0.04071
G1 X131.763 Y66.451 E0.04081
G1 X131.511 Y67.528 E0.03468
G1 X131.497 Y68.040 E0.01606
G1 X131.142 Y68.397 E0.01576
;WIPE_START
G1 F8640.000
G1 X131.497 Y68.040 E-0.11607
G1 X131.511 Y67.528 E-0.11825
G1 X131.763 Y66.451 E-0.25542
G1 X132.325 Y65.424 E-0.27025
;WIPE_END
G1 E-0.04000 F2100.000
G1 Z0.800 F10800.000
G1 X129.857 Y69.691
G1 Z0.200
G1 E0.80000 F2100.000
G1 F1200.000
G1 X121.371 Y78.235 E0.37758
G1 X120.762 Y79.384 E0.04077
G1 X120.492 Y80.554 E0.03765
G1 X120.477 Y84.590 E0.12655
G1 X119.675 Y84.436 E0.02558
G1 X107.373 Y84.440 E0.38573
M73 P2 R36
M73 Q2 S37
G1 X106.803 Y84.813 F10800.000
G1 F1200.000
G1 X119.657 Y84.813 E0.40300
G1 X120.534 Y84.987 E0.02804
G1 X120.853 Y85.107 E0.01069
G1 X120.864 Y80.616 E0.14084
G1 X121.107 Y79.538 E0.03464
G1 X121.691 Y78.436 E0.03910
G1 X131.381 Y68.691 E0.43089
G1 X131.877 Y67.915 F10800.000
G1 F1200.000
G1 X131.883 Y67.591 E0.01014
G1 X132.107 Y66.607 E0.03167
G1 X132.676 Y65.553 E0.03754
G1 X133.522 Y64.687 E0.03795
G1 X134.247 Y64.214 E0.02714
G1 X135.695 Y63.781 E0.04740
G1 X148.683 Y63.785 E0.40722
G1 X149.666 Y63.998 E0.03152
G1 X150.585 Y64.454 E0.03218
G1 X151.679 Y65.480 E0.04702
G1 X152.279 Y66.532 E0.03797
M73 Q2 S36
G1 X152.515 Y67.437 E0.02933
G1 X152.534 Y68.451 E0.03181
G1 X162.289 Y78.196 E0.43232
G1 X162.986 Y79.362 E0.04260
G1 X163.310 Y80.713 E0.04355
G1 X163.310 Y95.286 E0.45694
G1 X163.055 Y96.481 E0.03831
G1 X162.470 Y97.583 E0.03910
G1 X152.308 Y107.803 E0.45191
;WIPE_START
G1 F8640.000
G1 X154.628 Y105.469 E-0.76000
;WIPE_END
G1 E-0.04000 F2100.000
G1 Z0.800 F10800.000
G1 X151.183 Y108.640
G1 Z0.200
G1 E0.80000 F2100.000
G1 F1200.000
G1 X150.752 Y108.905 E0.01587
G1 X149.483 Y109.232 E0.04107
G1 X135.193 Y109.235 E0.44805
G1 X135.933 Y110.883 E0.05665
G1 X136.435 Y112.203 E0.04428
G1 X136.860 Y113.539 E0.04394
G1 X137.214 Y114.905 E0.04426
G1 X137.494 Y116.301 E0.04462
G1 X137.697 Y117.721 E0.04498
G1 X137.821 Y119.174 E0.04573
G1 X137.863 Y120.655 E0.04645
G1 X137.822 Y122.079 E0.04469
G1 X137.701 Y123.508 E0.04494
G1 X137.504 Y124.906 E0.04427
G1 X137.229 Y126.291 E0.04428
G1 X137.081 Y126.869 E0.01872
G1 X136.832 Y127.808 F10800.000
G1 F1200.000
G1 X136.446 Y129.029 E0.04017
G1 X135.907 Y130.444 E0.04748
G1 X135.314 Y131.764 E0.04536
G1 X134.655 Y133.037 E0.04494
G1 X133.937 Y134.252 E0.04427
G1 X133.155 Y135.423 E0.04413
G1 X132.230 Y136.646 E0.04807
G1 X131.317 Y137.724 E0.04432
G1 X130.344 Y138.749 E0.04430
G1 X129.317 Y139.718 E0.04428
G1 X128.230 Y140.636 E0.04461
G1 X127.085 Y141.498 E0.04494
G1 X125.899 Y142.291 E0.04471
G1 X124.594 Y143.059 E0.04748
G1 X123.317 Y143.714 E0.04502
G1 X122.045 Y144.280 E0.04365
G1 X120.735 Y144.780 E0.04395
G1 X119.329 Y145.227 E0.04627
G1 X117.992 Y145.572 E0.04329
G1 X116.629 Y145.846 E0.04360
G1 X115.188 Y146.052 E0.04563
G1 X113.723 Y146.177 E0.04609
G1 X112.210 Y146.218 E0.04746
G1 X110.819 Y146.177 E0.04365
G1 X109.433 Y146.060 E0.04361
G1 X108.035 Y145.864 E0.04426
G1 X106.649 Y145.592 E0.04427
G1 X105.259 Y145.237 E0.04497
G1 X103.837 Y144.787 E0.04677
G1 X102.424 Y144.245 E0.04747
G1 X101.163 Y143.679 E0.04332
G1 X99.928 Y143.041 E0.04360
G1 X98.666 Y142.298 E0.04592
G1 X97.491 Y141.514 E0.04429
G1 X96.369 Y140.672 E0.04398
G1 X95.269 Y139.748 E0.04503
G1 X94.176 Y138.716 E0.04713
G1 X93.204 Y137.688 E0.04436
G1 X92.272 Y136.585 E0.04527
G1 X91.411 Y135.440 E0.04493
G1 X90.622 Y134.261 E0.04447
G1 X89.825 Y132.901 E0.04941
G1 X89.195 Y131.672 E0.04333
G1 X88.628 Y130.400 E0.04365
G1 X88.126 Y129.081 E0.04427
G1 X87.687 Y127.705 E0.04527
G1 X87.330 Y126.317 E0.04494
G1 X87.056 Y124.942 E0.04395
G1 X86.858 Y123.554 E0.04398
G1 X86.734 Y122.123 E0.04503
G1 X86.690 Y120.620 E0.04713
G1 X86.730 Y119.206 E0.04436
G1 X86.849 Y117.788 E0.04461
G1 X87.044 Y116.390 E0.04427
G1 X87.322 Y114.984 E0.04494
G1 X87.680 Y113.584 E0.04531
G1 X88.118 Y112.204 E0.04540
G1 X88.643 Y110.830 E0.04611
G1 X89.234 Y109.510 E0.04534
G1 X89.878 Y108.265 E0.04394
G1 X90.583 Y107.066 E0.04361
G1 X91.392 Y105.851 E0.04577
G1 X92.330 Y104.610 E0.04878
G1 X93.244 Y103.532 E0.04433
G1 X94.217 Y102.507 E0.04430
G1 X95.181 Y101.598 E0.04154
G1 X95.908 Y100.979 F10800.000
G1 F1200.000
G1 X96.324 Y100.628 E0.01706
G1 X97.452 Y99.778 E0.04428
G1 X98.625 Y98.992 E0.04428
G1 X99.850 Y98.266 E0.04464
G1 X101.134 Y97.599 E0.04538
G1 X102.783 Y96.861 E0.05665
G1 X101.441 Y96.027 E0.04952
G1 X100.614 Y95.151 E0.03779
G1 X100.056 Y94.068 E0.03820
G1 X99.855 Y93.085 E0.03144
G1 X99.856 Y93.002 E0.00260
G1 X99.864 Y92.136 F10800.000
G1 F1200.000
G1 X99.898 Y88.348 E0.11879
G1 X100.327 Y87.097 E0.04147
G1 X100.848 Y86.353 E0.02847
G1 X101.764 Y85.515 E0.03894
G1 X102.712 Y85.032 E0.03335
G1 X103.732 Y84.813 E0.03270
G1 X106.116 Y84.813 E0.07474
G1 X106.234 Y85.187 F10800.000
G1 F1200.000
G1 X119.637 Y85.190 E0.42026
G1 X120.434 Y85.351 E0.02550
G1 X121.229 Y85.699 E0.02721
G1 X121.237 Y80.676 E0.15751
G1 X121.453 Y79.691 E0.03160
G1 X122.011 Y78.638 E0.03740
G1 X132.247 Y68.355 E0.45492
G1 X132.250 Y68.121 E0.00733
G1 X132.255 Y67.667 F10800.000
G1 F1200.000
G1 X132.452 Y66.762 E0.02902
G1 X132.995 Y65.756 E0.03586
G1 X133.747 Y64.990 E0.03367
G1 X134.384 Y64.566 E0.02397
G1 X135.724 Y64.159 E0.04390
G1 X148.662 Y64.162 E0.40568
G1 X149.560 Y64.361 E0.02885
G1 X150.391 Y64.778 E0.02913
G1 X151.399 Y65.734 E0.04357
G1 X151.922 Y66.653 E0.03314
G1 X152.138 Y67.467 E0.02644
G1 X152.160 Y68.610 E0.03585
G1 X162.006 Y78.445 E0.43634
G1 X162.647 Y79.529 E0.03948
G1 X162.933 Y80.735 E0.03885
G1 X162.933 Y95.267 E0.45565
G1 X162.709 Y96.328 E0.03401
G1 X162.150 Y97.382 E0.03738
G1 X154.161 Y105.407 E0.35507
;WIPE_START
G1 F8640.000
G1 X156.483 Y103.075 E-0.76000
;WIPE_END
G1 E-0.04000 F2100.000
G1 Z0.800 F10800.000
G1 X152.022 Y107.556
G1 Z0.200
G1 E0.80000 F2100.000
G1 F1200.000
G1 X151.682 Y107.897 E0.01512
G1 X150.580 Y108.568 E0.04045
G1 X149.460 Y108.855 E0.03626
G1 X134.555 Y108.858 E0.46732
G1 X135.012 Y109.741 E0.03116
G1 X135.582 Y111.022 E0.04399
G1 X136.077 Y112.323 E0.04363
G1 X136.499 Y113.648 E0.04361
G1 X136.848 Y114.995 E0.04361
G1 X137.123 Y116.370 E0.04396
G1 X137.322 Y117.758 E0.04399
G1 X137.445 Y119.190 E0.04505
G1 X137.486 Y120.660 E0.04611
G1 X137.446 Y122.053 E0.04369
G1 X137.326 Y123.470 E0.04461
G1 X137.131 Y124.848 E0.04362
G1 X136.861 Y126.213 E0.04363
G1 X136.493 Y127.629 E0.04589
;WIPE_START
G1 F8640.000
G1 X136.861 Y126.213 E-0.33795
G1 X137.131 Y124.848 E-0.32127
G1 X137.192 Y124.416 E-0.10078
;WIPE_END
G1 E-0.04000 F2100.000
G1 Z0.800 F10800.000
M73 P3 R36
G1 X136.164 Y128.672
M73 Q3 S36
G1 Z0.200
G1 E0.80000 F2100.000
G1 F1200.000
G1 X135.556 Y130.305 E0.05463
G1 X134.973 Y131.605 E0.04468
G1 X134.328 Y132.849 E0.04395
G1 X133.620 Y134.047 E0.04361
G1 X132.844 Y135.209 E0.04379
G1 X131.939 Y136.406 E0.04706
G1 X131.039 Y137.469 E0.04365
G1 X130.074 Y138.486 E0.04397
G1 X129.062 Y139.441 E0.04362
G1 X127.991 Y140.344 E0.04395
G1 X126.871 Y141.188 E0.04396
G1 X125.703 Y141.968 E0.04403
G1 X124.417 Y142.726 E0.04680
G1 X123.158 Y143.372 E0.04436
G1 X121.896 Y143.934 E0.04332
G1 X120.606 Y144.426 E0.04330
G1 X119.230 Y144.863 E0.04527
G1 X117.903 Y145.205 E0.04296
G1 X116.560 Y145.475 E0.04296
G1 X115.140 Y145.678 E0.04497
G1 X113.708 Y145.801 E0.04508
G1 X112.216 Y145.841 E0.04679
G1 X110.835 Y145.800 E0.04332
G1 X109.470 Y145.685 E0.04296
G1 X108.092 Y145.492 E0.04361
G1 X106.727 Y145.223 E0.04362
G1 X105.358 Y144.873 E0.04431
G1 X103.967 Y144.432 E0.04575
G1 X102.573 Y143.899 E0.04679
G1 X101.323 Y143.337 E0.04299
G1 X100.105 Y142.709 E0.04295
G1 X98.871 Y141.981 E0.04493
G1 X97.713 Y141.209 E0.04363
G1 X96.599 Y140.373 E0.04365
G1 X95.516 Y139.463 E0.04437
G1 X94.439 Y138.446 E0.04645
G1 X93.482 Y137.433 E0.04369
G1 X92.571 Y136.354 E0.04428
G1 X91.721 Y135.226 E0.04428
G1 X90.945 Y134.065 E0.04378
G1 X90.158 Y132.724 E0.04874
G1 X89.537 Y131.514 E0.04267
G1 X88.975 Y130.252 E0.04332
G1 X88.480 Y128.952 E0.04362
G1 X88.051 Y127.606 E0.04428
G1 X87.699 Y126.238 E0.04429
G1 X87.427 Y124.874 E0.04363
G1 X87.232 Y123.506 E0.04332
G1 X87.110 Y122.096 E0.04437
G1 X87.067 Y120.615 E0.04645
G1 X87.107 Y119.222 E0.04369
G1 X87.224 Y117.825 E0.04395
G1 X87.417 Y116.447 E0.04362
G1 X87.691 Y115.062 E0.04428
G1 X88.041 Y113.693 E0.04432
G1 X88.473 Y112.333 E0.04472
G1 X88.993 Y110.969 E0.04578
G1 X89.572 Y109.678 E0.04435
G1 X90.205 Y108.452 E0.04329
G1 X90.905 Y107.262 E0.04328
G1 X91.702 Y106.065 E0.04510
G1 X92.627 Y104.842 E0.04808
G1 X93.521 Y103.788 E0.04333
G1 X94.480 Y102.778 E0.04364
G1 X94.700 Y102.570 E0.00948
;WIPE_START
G1 F8640.000
G1 X94.480 Y102.778 E-0.06984
G1 X93.521 Y103.788 E-0.32141
G1 X92.627 Y104.842 E-0.31913
G1 X92.498 Y105.013 E-0.04962
;WIPE_END
G1 E-0.04000 F2100.000
G1 Z0.800 F10800.000
G1 X95.489 Y101.826
G1 Z0.200
G1 E0.80000 F2100.000
G1 F1200.000
G1 X96.563 Y100.920 E0.04407
G1 X97.674 Y100.083 E0.04363
G1 X98.831 Y99.308 E0.04363
G1 X100.037 Y98.593 E0.04398
G1 X101.303 Y97.937 E0.04471
G1 X102.655 Y97.331 E0.04646
